X:1
T:Camp Meeting on the Fourth of July
C:via Greg Canote
L:1/8
M:C|
I:linebreak $
K:D
V:1 treble
V:1
|: DE | "D"F2 F2 FEDF | ADBD AFDE | FEFG ABAF | "A"EDEF E2 DE |$
 "D"FEFG FEDF | ADBD AFDE | "A"FGAB AFEF | "D"D2- DD D2 :|$
|: (3ABc | "D"d2 c2 dcBA | "G"BcdB AF D2 | "D"(d2 d)e dcBA | "G"BABc B2 "A"(3ABc |$
 "D"d2 c2 dcBA | "G"BcdB AFDE | "A"FGAB AFEF | "D"D2- DD D2 :|
